X: 15
T: Off She Goes
R: jig
M: 6/8
L: 1/8
K: Dmaj
|: A | F2 A G2 B | ABc d2 A | F2 A G2 B | AFD E2 D |
F2 A G2 B | ABc d2 e | f2 d g2 f | edc d2 :|
|: g | faf def | gbg efg | faf def | ecA A2 g |
faf def | gbg efg | f2 d g2 f | edc d2 :|


Tune 1133	Setting 24474

